outputs/icons/communication/email_alt_sharp.svg

<svg xmlns="http://www.w3.org/2000/svg" width="1200" height="1200" fill="none"><g clip-path="url(#a)"><path fill="#000" d="M600 100c-276 0-500 224-500 500s224 500 500 500h250v-100H600c-217 0-400-183-400-400s183-400 400-400 400 183 400 400v71.5c0 39.5-35.5 78.5-75 78.5s-75-39-75-78.5V600c0-138-112-250-250-250S350 462 350 600s112 250 250 250c69 0 132-28 177-73.5C809.5 821 865.5 850 925 850c98.5 0 175-80 175-178.5V600c0-276-224-500-500-500m0 650c-83 0-150-67-150-150s67-150 150-150 150 67 150 150-67 150-150 150"/></g><defs><clipPath id="a"><path fill="#fff" d="M0 0h1200v1200H0z"/></clipPath></defs></svg>

<svg width="1200" height="1200" viewBox="0 0 1200 1200" fill="none" xmlns="http://www.w3.org/2000/svg"><g clip-path="url(#clip0_124_705)"><path d="M600 100C324 100 100 324 100 600C100 876 324 1100 600 1100H850V1000H600C383 1000 200 817 200 600C200 383 383 200 600 200C817 200 1000 383 1000 600V671.5C1000 711 964.5 750 925 750C885.5 750 850 711 850 671.5V600C850 462 738 350 600 350C462 350 350 462 350 600C350 738 462 850 600 850C669 850 732 822 777 776.5C809.5 821 865.5 850 925 850C1023.5 850 1100 770 1100 671.5V600C1100 324 876 100 600 100ZM600 750C517 750 450 683 450 600C450 517 517 450 600 450C683 450 750 517 750 600C750 683 683 750 600 750Z" fill="black"/></g><defs><clipPath id="clip0_124_705"><path width="24" fill="white" d="M0 0H1200V1200H0V0z"/></clipPath></defs></svg>
